public/icon/svg/Home.page.svg

<?xml version="1.0" encoding="UTF-8"?>
<svg width="1024px" height="1024px" viewBox="0 0 1024 1024" version="1.1" xmlns="http://www.w3.org/2000/svg" xmlns:xlink="http://www.w3.org/1999/xlink">
    <title>Homepage</title>
    <defs>
        <linearGradient x1="0.420415119%" y1="-2.2727743%" x2="79.6392229%" y2="89.1952032%" id="linearGradient-1">
            <stop stop-color="#CBE0F4" offset="0%"></stop>
            <stop stop-color="#69BAE3" offset="33.133329%"></stop>
            <stop stop-color="#0064A5" offset="100%"></stop>
        </linearGradient>
    </defs>
    <g id="Icon-SVG" stroke="none" stroke-width="1" fill="none" fill-rule="evenodd">
        <g id="Homepage" transform="translate(0, -0.0008)">
            <rect id="蒙版路径" fill="#333333" x="0" y="0" width="1024" height="1024"></rect>
            <g id="编组-64" transform="translate(202.9501, 191.2724)">
                <path d="M69.3203653,0.728392127 L542.834924,0.728392127 C568.247937,-1.86535113 587.40294,2.46798221 600.299932,13.7283921 C613.196925,24.988802 619.43028,42.8221354 619,67.2283921 L619.049932,247.228392 L518.549932,247.228392 L518.549932,642.228392 L259.799932,425.228392 L171.799932,497.728392 L171.799932,436.228392 L90.5499324,436.228392 L90.5499324,566.978392 L0.0499323949,642.228392 L0.0497675804,74.7283921 C-0.554618351,46.5107327 4.34581961,26.8440661 14.7510815,15.7283921 C25.1563433,4.61271818 43.3461046,-0.387281818 69.3203653,0.728392127 Z" id="矩形" fill="url(#linearGradient-1)"></path>
                <path d="M519.049932,51.7283921 C519.049932,42.4783921 527.549932,1.22778567 569.049932,1.22778567 C610.549932,1.22778567 619.049932,45.7283921 619.049932,51.7283921 C619.049932,55.7283921 619.049932,120.728392 619.049932,246.728392 L519.049932,246.728392 C519.049932,122.895059 519.049932,57.8950588 519.049932,51.7283921 Z" id="矩形" fill="#1A6DA8"></path>
            </g>
        </g>
    </g>
</svg>

<svg xmlns="http://www.w3.org/2000/svg" width="1024" height="1024"><defs><linearGradient id="a" x1=".42%" x2="79.639%" y1="-2.273%" y2="89.195%"><stop offset="0%" stop-color="#CBE0F4"/><stop offset="33.133%" stop-color="#69BAE3"/><stop offset="100%" stop-color="#0064A5"/></linearGradient></defs><g fill="none" fill-rule="evenodd"><path fill="#333" d="M0 0h1024v1024H0z"/><path fill="url(#a)" d="M69.32.728h473.515c25.413-2.593 44.568 1.74 57.465 13 12.897 11.26 19.13 29.094 18.7 53.5l.05 180h-100.5v395l-258.75-217-88 72.5v-61.5H90.55v130.75l-90.5 75.25v-567.5c-.605-28.217 4.296-47.884 14.701-59C25.156 4.613 43.346-.387 69.321.728Z" transform="translate(202.95 191.272)"/><path fill="#1A6DA8" d="M722 243c0-9.25 8.5-50.5 50-50.5s50 44.5 50 50.5v195H722V243"/></g></svg>
